icons/device-mobile-16.svg

<svg xmlns="http://www.w3.org/2000/svg" width="16" height="16" viewBox="0 0 16 16">
  <defs/>
  <path d="M3.75,0 L12.25,0 C13.216,0 14,0.784 14,1.75 L14,14.25 C14,15.216 13.216,16 12.25,16 L3.75,16 C2.784,16 2,15.216 2,14.25 L2,1.75 C2,0.784 2.784,0 3.75,0 Z M3.5,1.75 L3.5,14.25 C3.5,14.388 3.612,14.5 3.75,14.5 L12.25,14.5 C12.388,14.5 12.5,14.388 12.5,14.25 L12.5,1.75 C12.5,1.612 12.388,1.5 12.25,1.5 L3.75,1.5 C3.612,1.5 3.5,1.612 3.5,1.75 Z M8,13 C7.448,13 7,12.552 7,12 C7,11.448 7.448,11 8,11 C8.552,11 9,11.448 9,12 C9,12.552 8.552,13 8,13 Z"/>
</svg>

<svg xmlns="http://www.w3.org/2000/svg" width="16" height="16" viewBox="0 0 16 16"><path d="M3.75 0h8.5C13.216 0 14 .784 14 1.75v12.5A1.75 1.75 0 0112.25 16h-8.5A1.75 1.75 0 012 14.25V1.75C2 .784 2.784 0 3.75 0zM3.5 1.75v12.5c0 .138.112.25.25.25h8.5a.25.25 0 00.25-.25V1.75a.25.25 0 00-.25-.25h-8.5a.25.25 0 00-.25.25zM8 13a1 1 0 110-2 1 1 0 010 2z"/></svg>
